assets/glimmer-js-bold-dark.svg

<svg xmlns="http://www.w3.org/2000/svg" fill="none" viewBox="0 0 32 32"><path fill="#E04E39" fill-rule="evenodd" d="M7.18854 17.2146c.32052.3092.74997.482 1.19685.4814.23054.0003.4586-.0456.6709-.1348.21231-.0893.40431-.2201.56454-.3848L21.2309 5.27655c.1583-.16086.2831-.35119.3671-.56006.0841-.20887.1257-.43217.1226-.65708-.0031-.2249-.0508-.44699-.1406-.6535-.0897-.20652-.2197-.3934-.3823-.54992-.1627-.15651-.3549-.27958-.5656-.36214-.2107-.08256-.4357-.12298-.6622-.11895-.2264.00404-.4498.05245-.6574.14247-.2076.09001-.3952.21985-.5521.38206L7.15013 14.7993c-.31741.3254-.49169.7626-.48449 1.2156.0072.4529.1953.8845.5229 1.1997ZM29.8749 12.469C28.9722 12.1648 28.0053 12 27 12h-1.2587l1.3033-1.3358c.319-.3186.7515-.4997 1.2038-.5039.4524-.0042.8883.1688 1.2131.4814.3249.3127.5127.7398.5228 1.189.0049.2198-.033.4363-.1094.6383Zm-14.111 1.7294 8.1317-8.33482c.3186-.3143.7487-.49191 1.1979-.49468.4491-.00277.8814.16953 1.2039.47987.3226.31035.5097.73397.5211 1.17984.0115.44587-.1537.8784-.4599 1.20465l-3.6788 3.77064c-2.5565.0618-4.9301.8616-6.9159 2.1945Zm-4.414 5.0267c-.8613 1.7341-1.3467 3.6878-1.3499 5.7546l-1.55604 1.595c-.16022.1646-.3522.2954-.56447.3846-.21227.0892-.44047.135-.67097.1347-.44682.0006-.87621-.1721-1.19666-.4814-.16225-.156-.29196-.3423-.38171-.5481-.08975-.2059-.13778-.4273-.14135-.6516-.00356-.2243.0374-.4471.12056-.6556.08316-.2086.20688-.3989.36409-.5599l4.37235-4.4817c.2716-.2714.6256-.443 1.0041-.4906Zm-8.57984-5.3826c.28166.1853.61204.2842.9499.2842.23052.0002.45872-.0456.67099-.1349.21227-.0892.40424-.2201.56446-.3847l4.37255-4.48165c.31256-.32629.48274-.76196.4735-1.21221-.00924-.45026-.19714-.87868-.52283-1.19206-.32569-.31337-.76281-.48636-1.21627-.48131-.45346.00505-.88657.18772-1.2051.50827L2.48471 11.23c-.2351.241-.39353.5454-.45552.8752-.06198.3299-.02477.6705.10698.9795.13176.3089.35222.5725.63389.7578Zm2.84534 7.2861c.08536-.2093.12808-.4334.12568-.6592-.00479-.4499-.18812-.8798-.51018-1.1962-.32206-.3165-.75683-.494-1.2099-.494s-.88785.1775-1.20991.494c-.32205.3164-.50538.7463-.51017 1.1962-.00241.2258.04031.4499.12568.6592.08536.2094.21168.3998.37164.5604.15996.1605.3504.288.56028.375.20988.0869.43505.1317.66248.1317.22742 0 .45259-.0448.66248-.1317.20988-.087.40031-.2145.56027-.375.15997-.1606.28628-.351.37165-.5604Zm8.1647-16.76649c.0864-.20723.1309-.42934.1309-.65365 0-.33788-.1008-.66818-.2898-.94913-.189-.28096-.4577-.49994-.772-.62926-.3143-.12932-.6602-.16316-.9939-.09725-.3337.0659-.6402.2286-.8808.46752-.2406.23892-.4044.54332-.4708.87471-.0664.33139-.0323.67488.0979.98703.1302.31216.3508.57895.6337.76664.2829.18769.6155.28786.9557.28782.2259 0 .4495-.04418.6582-.13002s.3983-.21166.558-.37027c.1597-.15861.2864-.3469.3729-.55414Z" clip-rule="evenodd"/><path fill="#D9D9D9" d="M17.4239 15.1978h2.4884v7.3408c0 .9598-.09 1.6981-.27 2.2149-.2418.675-.6804 1.2182-1.3159 1.6295-.6354.4061-1.4733.6091-2.5137.6091-1.2203 0-2.1594-.3191-2.8173-.9572-.658-.6433-.9898-1.5847-.9954-2.824l2.3534-.2531c.0282.6645.1322 1.1338.3121 1.4081.27.4166.6805.6249 1.2316.6249.5567 0 .9504-.1477 1.1809-.443.2306-.3006.3459-.9202.3459-1.8589v-7.4911ZM21.9452 23.0211l2.4293-.2215c.1462.7647.4415 1.3263.8857 1.6849.4499.3586 1.0544.5379 1.8136.5379.8042 0 1.4087-.1582 1.8136-.4746.4105-.3217.6158-.6961.6158-1.1233 0-.2742-.0872-.5062-.2615-.6961-.1687-.1951-.4668-.3639-.8942-.5063-.2924-.0949-.9588-.2636-1.9991-.5062-1.3384-.3112-2.2775-.6935-2.8174-1.147-.7592-.6381-1.1388-1.416-1.1388-2.3336 0-.5906.1772-1.1417.5315-1.6532.3599-.5168.8744-.9097 1.5436-1.1787.6748-.2689 1.4874-.4034 2.4378-.4034 1.5521 0 2.719.3191 3.5006.9572.7873.6381 1.2007 1.4897 1.24 2.555l-2.4968.1028c-.1069-.5959-.3374-1.023-.6917-1.2814-.3487-.2637-.8745-.3956-1.5774-.3956-.7254 0-1.2934.1398-1.7039.4193-.2643.1793-.3965.4192-.3965.7198 0 .2743.1237.5089.3712.704.3149.2479 1.0797.5063 2.2944.7753 1.2146.2689 2.1116.5484 2.6908.8385.5849.2847 1.0404.6776 1.3665 1.1786.3318.4957.4977 1.1101.4977 1.8431 0 .6645-.1968 1.2868-.5905 1.8669-.3936.58-.9503 1.0125-1.6702 1.2973-.7198.2794-1.6167.4192-2.6908.4192-1.5633 0-2.764-.3375-3.6019-1.0125-.8379-.6803-1.3383-1.6691-1.5014-2.9664Z"/></svg>

<svg width="32" height="32" viewBox="0 0 32 32" fill="none" xmlns="http://www.w3.org/2000/svg">
<path fill-rule="evenodd" clip-rule="evenodd" d="M7.18854 17.2146C7.50906 17.5238 7.93851 17.6966 8.38539 17.696C8.61593 17.6963 8.84399 17.6504 9.05629 17.5612C9.2686 17.4719 9.4606 17.3411 9.62083 17.1764L21.2309 5.27655C21.3892 5.11569 21.514 4.92536 21.598 4.71649C21.6821 4.50762 21.7237 4.28432 21.7206 4.05941C21.7175 3.83451 21.6698 3.61242 21.58 3.40591C21.4903 3.19939 21.3603 3.01251 21.1977 2.85599C21.035 2.69948 20.8428 2.57641 20.6321 2.49385C20.4214 2.41129 20.1964 2.37087 19.9699 2.3749C19.7435 2.37894 19.5201 2.42735 19.3125 2.51737C19.1049 2.60738 18.9173 2.73722 18.7604 2.89943L7.15013 14.7993C6.83272 15.1247 6.65844 15.5619 6.66564 16.0149C6.67284 16.4678 6.86094 16.8994 7.18854 17.2146ZM29.8749 12.469C28.9722 12.1648 28.0053 12 27 12H25.7413L27.0446 10.6642C27.3636 10.3456 27.7961 10.1645 28.2484 10.1603C28.7008 10.1561 29.1367 10.3291 29.4615 10.6417C29.7864 10.9544 29.9742 11.3815 29.9843 11.8307C29.9892 12.0505 29.9513 12.267 29.8749 12.469ZM15.7639 14.1984L23.8956 5.86358C24.2142 5.54928 24.6443 5.37167 25.0935 5.3689C25.5426 5.36613 25.9749 5.53843 26.2974 5.84877C26.62 6.15912 26.8071 6.58274 26.8185 7.02861C26.83 7.47448 26.6648 7.90701 26.3586 8.23326L22.6798 12.0039C20.1233 12.0657 17.7497 12.8655 15.7639 14.1984ZM11.3499 19.2251C10.4886 20.9592 10.0032 22.9129 10 24.9797L8.44396 26.5747C8.28374 26.7393 8.09176 26.8701 7.87949 26.9593C7.66722 27.0485 7.43902 27.0943 7.20852 27.094C6.7617 27.0946 6.33231 26.9219 6.01186 26.6126C5.84961 26.4566 5.7199 26.2703 5.63015 26.0645C5.5404 25.8586 5.49237 25.6372 5.4888 25.4129C5.48524 25.1886 5.5262 24.9658 5.60936 24.7573C5.69252 24.5487 5.81624 24.3584 5.97345 24.1974L10.3458 19.7157C10.6174 19.4443 10.9714 19.2727 11.3499 19.2251ZM2.77006 13.8425C3.05172 14.0278 3.3821 14.1267 3.71996 14.1267C3.95048 14.1269 4.17868 14.0811 4.39095 13.9918C4.60322 13.9026 4.79519 13.7717 4.95541 13.6071L9.32796 9.12545C9.64052 8.79916 9.8107 8.36349 9.80146 7.91324C9.79222 7.46298 9.60432 7.03456 9.27863 6.72118C8.95294 6.40781 8.51582 6.23482 8.06236 6.23987C7.6089 6.24492 7.17579 6.42759 6.85726 6.74814L2.48471 11.23C2.24961 11.471 2.09118 11.7754 2.02919 12.1052C1.96721 12.4351 2.00442 12.7757 2.13617 13.0847C2.26793 13.3936 2.48839 13.6572 2.77006 13.8425ZM5.6154 21.1286C5.70076 20.9193 5.74348 20.6952 5.74108 20.4694C5.73629 20.0195 5.55296 19.5896 5.2309 19.2732C4.90884 18.9567 4.47407 18.7792 4.021 18.7792C3.56793 18.7792 3.13315 18.9567 2.81109 19.2732C2.48904 19.5896 2.30571 20.0195 2.30092 20.4694C2.29851 20.6952 2.34123 20.9193 2.4266 21.1286C2.51196 21.338 2.63828 21.5284 2.79824 21.689C2.9582 21.8495 3.14864 21.977 3.35852 22.064C3.5684 22.1509 3.79357 22.1957 4.021 22.1957C4.24842 22.1957 4.47359 22.1509 4.68348 22.064C4.89336 21.977 5.08379 21.8495 5.24375 21.689C5.40372 21.5284 5.53003 21.338 5.6154 21.1286ZM13.7801 4.36211C13.8665 4.15488 13.911 3.93277 13.911 3.70846C13.911 3.37058 13.8102 3.04028 13.6212 2.75933C13.4322 2.47837 13.1635 2.25939 12.8492 2.13007C12.5349 2.00075 12.189 1.96691 11.8553 2.03282C11.5216 2.09872 11.2151 2.26142 10.9745 2.50034C10.7339 2.73926 10.5701 3.04366 10.5037 3.37505C10.4373 3.70644 10.4714 4.04993 10.6016 4.36208C10.7318 4.67424 10.9524 4.94103 11.2353 5.12872C11.5182 5.31641 11.8508 5.41658 12.191 5.41654C12.4169 5.41654 12.6405 5.37236 12.8492 5.28652C13.0579 5.20068 13.2475 5.07486 13.4072 4.91625C13.5669 4.75764 13.6936 4.56935 13.7801 4.36211Z" fill="#E04E39"/>
<path d="M17.4239 15.1978H19.9123V22.5386C19.9123 23.4984 19.8223 24.2367 19.6423 24.7535C19.4005 25.4285 18.9619 25.9717 18.3264 26.383C17.691 26.7891 16.8531 26.9921 15.8127 26.9921C14.5924 26.9921 13.6533 26.673 12.9954 26.0349C12.3374 25.3916 12.0056 24.4502 12 23.2109L14.3534 22.9578C14.3816 23.6223 14.4856 24.0916 14.6655 24.3659C14.9355 24.7825 15.346 24.9908 15.8971 24.9908C16.4538 24.9908 16.8475 24.8431 17.078 24.5478C17.3086 24.2472 17.4239 23.6276 17.4239 22.6889V15.1978Z" fill="#D9D9D9"/>
<path d="M21.9452 23.0211L24.3745 22.7996C24.5207 23.5643 24.816 24.1259 25.2602 24.4845C25.7101 24.8431 26.3146 25.0224 27.0738 25.0224C27.878 25.0224 28.4825 24.8642 28.8874 24.5478C29.2979 24.2261 29.5032 23.8517 29.5032 23.4245C29.5032 23.1503 29.416 22.9183 29.2417 22.7284C29.073 22.5333 28.7749 22.3645 28.3475 22.2221C28.0551 22.1272 27.3887 21.9585 26.3484 21.7159C25.01 21.4047 24.0709 21.0224 23.531 20.5689C22.7718 19.9308 22.3922 19.1529 22.3922 18.2353C22.3922 17.6447 22.5694 17.0936 22.9237 16.5821C23.2836 16.0653 23.7981 15.6724 24.4673 15.4034C25.1421 15.1345 25.9547 15 26.9051 15C28.4572 15 29.6241 15.3191 30.4057 15.9572C31.193 16.5953 31.6064 17.4469 31.6457 18.5122L29.1489 18.615C29.042 18.0191 28.8115 17.592 28.4572 17.3336C28.1085 17.0699 27.5827 16.938 26.8798 16.938C26.1544 16.938 25.5864 17.0778 25.1759 17.3573C24.9116 17.5366 24.7794 17.7765 24.7794 18.0771C24.7794 18.3514 24.9031 18.586 25.1506 18.7811C25.4655 19.029 26.2303 19.2874 27.445 19.5564C28.6596 19.8253 29.5566 20.1048 30.1358 20.3949C30.7207 20.6796 31.1762 21.0725 31.5023 21.5735C31.8341 22.0692 32 22.6836 32 23.4166C32 24.0811 31.8032 24.7034 31.4095 25.2835C31.0159 25.8635 30.4592 26.296 29.7393 26.5808C29.0195 26.8602 28.1226 27 27.0485 27C25.4852 27 24.2845 26.6625 23.4466 25.9875C22.6087 25.3072 22.1083 24.3184 21.9452 23.0211Z" fill="#D9D9D9"/>
</svg>
